optimized/24/outline/telephone.svg

<svg viewBox="0 0 24 24" fill="none" xmlns="http://www.w3.org/2000/svg">
  <g clip-path="url(#clip0_2117_12168)">
    <path d="M10.2259 4.69077C9.93654 4.4015 9.67551 4.12678 9.42852 3.86682L9.42443 3.86251C9.18189 3.60724 8.94765 3.36071 8.72393 3.14196C8.28842 2.71617 7.80577 2.30475 7.23107 2.11365C6.59943 1.90361 5.96834 1.99115 5.31973 2.32294C4.70407 2.63788 4.03962 3.18798 3.26881 3.95885C3.25381 3.97385 3.23943 3.98947 3.22572 4.00567C3.22572 4.00567 3.22338 4.00795 3.22054 4.01079C3.21441 4.01692 3.20268 4.02864 3.18288 4.04798L3.1763 4.05441C3.13626 4.09351 3.07851 4.1499 3.01458 4.21719C2.87744 4.36154 2.70644 4.56127 2.54433 4.82395C2.21368 5.35972 1.94681 6.11496 2.00907 7.13441C2.13078 9.12702 3.49894 12.0067 7.74884 16.2555C11.9982 20.5036 14.8778 21.8705 16.8701 21.9911C17.8894 22.0528 18.6444 21.7854 19.1799 21.4545C19.4424 21.2922 19.642 21.1211 19.7862 20.984C19.8533 20.9202 19.9095 20.8626 19.9486 20.8226L19.9553 20.8157C19.9746 20.7959 19.9863 20.7842 19.9924 20.7781C19.9952 20.7753 19.9974 20.773 19.9974 20.773C20.0136 20.7593 20.0292 20.745 20.0442 20.73C20.8133 19.9611 21.3625 19.2976 21.6771 18.6823C22.0085 18.0342 22.0961 17.4034 21.8871 16.7718C21.6968 16.1968 21.2865 15.7134 20.8609 15.2769C20.6411 15.0515 20.3933 14.8157 20.1365 14.5714L20.1255 14.561C19.8687 14.3167 19.5975 14.0588 19.312 13.7733C18.5832 13.045 17.8717 12.7427 17.1232 12.7625C16.7777 12.7716 16.4635 12.8489 16.1932 12.9323C16.0579 12.9741 15.9251 13.0202 15.8031 13.0629L15.7667 13.0756C15.7539 13.0801 15.7411 13.0846 15.7285 13.089C15.6315 13.123 15.5402 13.1547 15.4475 13.1847C14.9985 13.3301 14.6093 13.404 14.1447 13.2902C13.6637 13.1724 13.0008 12.8268 12.0888 11.9151C11.1768 11.0034 10.8309 10.3404 10.7128 9.8591C10.6813 9.73093 10.6641 9.60848 10.6588 9.48893C10.6447 9.17492 10.7123 8.88084 10.8174 8.55543C10.8512 8.45075 10.8872 8.34784 10.9261 8.23634L10.939 8.1996C10.9815 8.07759 11.0276 7.94467 11.0692 7.80929C11.1524 7.53893 11.2294 7.22455 11.2382 6.87909C11.2572 6.13052 10.9546 5.41926 10.2259 4.69077ZM4.26547 5.14114C4.28941 5.11786 4.3338 5.0747 4.37597 5.02741C5.10592 4.29941 5.62745 3.89359 6.02037 3.69259C6.38379 3.50668 6.58506 3.52011 6.74562 3.57351C6.96313 3.64583 7.23251 3.83538 7.64841 4.242C7.84916 4.43828 8.06417 4.66437 8.31304 4.92631L8.31789 4.93141C8.56241 5.18877 8.83482 5.47548 9.13819 5.77877C9.64345 6.28389 9.70612 6.60809 9.70022 6.83992C9.69653 6.98466 9.66345 7.1467 9.59878 7.35689C9.56651 7.46178 9.52917 7.57017 9.48641 7.69272L9.47344 7.72986C9.43529 7.83905 9.39321 7.9595 9.35345 8.08261C9.31299 8.20788 9.27336 8.34043 9.2385 8.48036C9.11642 8.97045 9.05302 9.55104 9.21868 10.2259C9.42759 11.0769 9.97504 11.9773 11.0011 13.0031C12.0271 14.0288 12.9276 14.576 13.7787 14.7845C14.6462 14.997 15.3579 14.8309 15.9216 14.6483C16.0448 14.6084 16.1652 14.5662 16.2744 14.5279L16.3114 14.515C16.4339 14.4721 16.5422 14.4346 16.647 14.4023C16.8571 14.3374 17.0191 14.3042 17.1637 14.3004C17.2622 14.2978 17.3775 14.3076 17.5163 14.3586C17.7037 14.4274 17.9341 14.5714 18.2243 14.8613C18.5235 15.1604 18.8067 15.4298 19.0611 15.6718L19.0762 15.6861C19.3378 15.9349 19.5636 16.1501 19.7595 16.351C20.1652 16.767 20.3544 17.0371 20.4266 17.2551C20.4801 17.4168 20.493 17.6188 20.3073 17.9819C20.1067 18.3744 19.7018 18.8949 18.9758 19.6227C18.9284 19.6649 18.8852 19.7094 18.8618 19.7334L18.8545 19.741L18.8509 19.7446C18.8106 19.7859 18.7719 19.8255 18.7261 19.8691C18.6339 19.9568 18.5183 20.0548 18.3711 20.1458C18.0871 20.3213 17.6446 20.4967 16.963 20.4555C15.5537 20.3701 13.0182 19.348 8.83654 15.1675C4.65436 10.9864 3.63078 8.45056 3.54466 7.04061C3.50302 6.35879 3.6782 5.91601 3.85353 5.63191C3.94442 5.48465 4.04238 5.36898 4.12994 5.27681C4.17361 5.23084 4.21334 5.19203 4.25469 5.15164L4.25794 5.14847L4.26547 5.14114Z" fill="#333333"/>
  </g>
  <defs>
    <clipPath id="clip0_2117_12168">
      <rect width="24" height="24" fill="white"/>
    </clipPath>
  </defs>
</svg>

<svg xmlns="http://www.w3.org/2000/svg" width="24" height="24" fill="none">
  <g clip-path="url(#a)">
    <path fill="#333" d="M10.226 4.69c-.29-.288-.55-.563-.797-.823l-.005-.004a28.119 28.119 0 0 0-.7-.721c-.436-.426-.918-.837-1.493-1.028-.632-.21-1.263-.123-1.911.209-.616.315-1.28.865-2.051 1.636a.766.766 0 0 0-.043.047l-.005.005a4.206 4.206 0 0 1-.038.037l-.007.006c-.04.04-.097.096-.161.163a3.692 3.692 0 0 0-.47.607c-.331.536-.598 1.291-.536 2.31.122 1.993 1.49 4.873 5.74 9.122 4.25 4.248 7.129 5.614 9.121 5.735 1.02.062 1.774-.206 2.31-.537.262-.162.462-.333.606-.47.067-.064.123-.121.163-.161l.006-.007.037-.038.005-.005a.761.761 0 0 0 .047-.043c.77-.769 1.319-1.432 1.633-2.048.332-.648.42-1.279.21-1.91-.19-.575-.6-1.059-1.026-1.495-.22-.225-.468-.461-.724-.706l-.012-.01c-.256-.244-.527-.502-.813-.788-.729-.728-1.44-1.03-2.189-1.01-.345.009-.66.086-.93.17a11.11 11.11 0 0 0-.39.13l-.036.013-.038.013c-.097.034-.189.066-.281.096-.45.145-.839.219-1.303.105-.481-.118-1.144-.463-2.056-1.375-.912-.912-1.258-1.575-1.376-2.056a1.893 1.893 0 0 1-.054-.37c-.014-.314.053-.608.158-.934.034-.104.07-.207.11-.319l.012-.036c.043-.122.089-.255.13-.39.083-.271.16-.585.17-.93.018-.75-.284-1.46-1.013-2.19Zm-5.96.451c.023-.023.068-.066.11-.114.73-.728 1.251-1.133 1.644-1.334.364-.186.565-.173.726-.12.217.073.487.262.902.669.201.196.416.422.665.684l.005.005c.244.258.517.544.82.848.505.505.568.83.562 1.06a1.945 1.945 0 0 1-.101.518c-.032.105-.07.213-.113.336l-.013.037c-.038.109-.08.23-.12.353-.04.125-.08.257-.114.397a3.539 3.539 0 0 0-.02 1.746c.209.85.756 1.751 1.782 2.777 1.026 1.026 1.927 1.573 2.778 1.781.867.213 1.579.047 2.143-.136.123-.04.243-.082.352-.12l.037-.013c.123-.043.231-.08.336-.113.21-.065.372-.098.517-.102a.918.918 0 0 1 .352.059c.188.068.418.212.708.502.3.3.583.569.837.81l.015.015c.262.249.488.464.683.665.406.416.595.686.668.904.053.162.066.364-.12.727-.2.392-.605.913-1.331 1.64-.048.043-.09.087-.114.111l-.007.008-.004.004a4.59 4.59 0 0 1-.125.124 2.157 2.157 0 0 1-.355.277c-.284.175-.726.35-1.408.31-1.41-.086-3.945-1.108-8.126-5.288C4.654 10.986 3.63 8.45 3.545 7.04c-.042-.682.133-1.125.309-1.41.09-.146.188-.262.276-.354.044-.046.083-.085.125-.125l.003-.004.007-.007Z"/>
  </g>
  <defs>
    <clipPath id="a">
      <path fill="#fff" d="M0 0h24v24H0z"/>
    </clipPath>
  </defs>
</svg>
